src/components/00-materials/images-raw/Family Single F.svg

<svg width="96" height="96" viewBox="0 0 96 96" fill="none" xmlns="http://www.w3.org/2000/svg">
<path d="M41.35 38.7001V44.0401L37.29 44.4901M54.92 38.6V44.0401L59.34 44.53M41.55 64C47.2473 64.6277 53.0048 64.4425 58.65 63.4501L63.11 62.66M61.7 57.6101V61.2201M48.13 41.78C54 41.78 57.13 36.8901 57.13 31.6101V20.3C57.13 20.3 54.87 23.7001 51.47 23.7001H44.74C40.22 23.7001 39.09 25.96 39.09 25.96V31.6101C39.09 36.8901 42.27 41.78 48.13 41.78Z" stroke="#00008F" stroke-width="2" stroke-linecap="round" stroke-linejoin="round"/>
<path d="M30.29 39.74C31.2274 39.0661 31.9985 38.1869 32.5444 37.1696C33.0903 36.1523 33.3966 35.0237 33.44 33.87V23.7C33.44 15.78 39.09 9 47 9H48.13C54.92 9 57.3 12.29 59.44 15.78C61.7 15.78 62.83 18.04 62.83 20.3V33.87C62.8696 35.0558 63.1859 36.2159 63.7537 37.2577C64.3214 38.2994 65.1249 39.194 66.1 39.87M57.59 48.43C55.0158 50.6498 51.7428 51.8932 48.344 51.9426C44.9453 51.992 41.6375 50.8441 39 48.7M57.59 48.43C57.3977 49.2155 57.3003 50.0213 57.3 50.83V52C57.2602 53.7797 57.6374 55.5441 58.4014 57.152C59.1654 58.7599 60.295 60.1667 61.7 61.26M57.59 48.43C57.9231 47.0316 58.5168 45.7085 59.34 44.53M57.59 48.43L59.34 44.53M76.71 62C78.4028 60.943 79.7946 59.4675 80.751 57.7158C81.7074 55.9642 82.1961 53.9956 82.17 52V50.83C82.0989 47.8528 80.8845 45.0171 78.7786 42.9113C76.6728 40.8055 73.8372 39.5911 70.86 39.52H68.6C67.7575 39.5264 66.9185 39.6304 66.1 39.83M66.1 39.83C63.3539 40.5309 60.9534 42.2 59.34 44.53M66.1 39.83L59.34 44.53M41.55 64C41.87 64.24 42.09 64.37 42.09 64.37C40.65 67.26 37.36 68.76 35.17 69.47" stroke="#00008F" stroke-width="2" stroke-linecap="round" stroke-linejoin="round"/>
<path d="M41.55 64C40.7059 63.398 40.0104 62.6113 39.5164 61.6997C39.0225 60.7882 38.7433 59.7759 38.7 58.74V47.43C38.7613 46.8574 38.6618 46.279 38.4127 45.7597C38.1637 45.2404 37.7749 44.8007 37.29 44.49C36.6737 44.1688 35.9844 44.0137 35.29 44.04C33.42 40.85 30.77 39.52 26.29 39.52H25.14C22.142 39.5253 19.2683 40.7186 17.1484 42.8385C15.0285 44.9584 13.8353 47.832 13.83 50.83V58.74C13.83 62.43 10.44 64.39 10.44 64.39C11.88 67.28 15.17 68.78 17.36 69.49M31.92 64.39V68.91L37.43 70C39.5982 70.2655 41.5988 71.3011 43.0673 72.9183C44.5357 74.5354 45.3742 76.6263 45.43 78.81V82.05C45.4146 82.713 45.1669 83.3495 44.73 83.8484C44.2932 84.3474 43.6951 84.6771 43.04 84.78L37.52 85.78M15.01 85.78L9.49998 84.78C8.84387 84.6774 8.24448 84.348 7.80601 83.8493C7.36754 83.3505 7.11772 82.7139 7.09998 82.05V78.81C7.15572 76.6263 7.99423 74.5354 9.46269 72.9183C10.9312 71.3011 12.9318 70.2655 15.1 70L17.47 69.54L20.61 68.91" stroke="#00008F" stroke-width="2" stroke-linecap="round" stroke-linejoin="round"/>
<path d="M15 85.7701L17.33 86.2001C23.2419 87.27 29.298 87.27 35.21 86.2001L37.57 85.7701V81.3501M35.06 69.5401L33.06 74.5401C30.65 79.6001 21.9 79.6001 19.49 74.5401L17.49 69.5401M17.47 69.5401V69.5301M20.61 64.3901V68.9101M14.96 81.3501V85.7701M70.32 52.1201C71.578 51.2335 72.5509 50 73.12 48.5701C73.4377 49.534 74.0412 50.3784 74.8504 50.9911C75.6595 51.6038 76.636 51.9557 77.65 52.0001V57.6501C77.65 62.2501 74.77 66.6501 69.73 66.6501C68.3649 66.6588 67.0241 66.2898 65.8558 65.5838C64.6874 64.8779 63.7371 63.8625 63.11 62.6501M18.35 57.6101C18.35 62.1301 21.23 66.6101 26.27 66.6101C31.31 66.6101 34.18 62.0901 34.18 57.6101V48.6101C32.6325 50.0229 30.6249 50.8259 28.53 50.8701H22.88C22.0058 50.8939 21.1474 51.1085 20.3649 51.4989C19.5824 51.8893 18.8947 52.446 18.35 53.1301V57.6101Z" stroke="#00008F" stroke-width="2" stroke-linecap="round" stroke-linejoin="round"/>
<path d="M70.3199 52.1201C69.1117 52.8341 67.722 53.1815 66.3199 53.1201H61.8199V57.6401C61.8127 59.4122 62.2566 61.157 63.1099 62.7101M64.0799 64.3901V68.9101L58.5699 70.0001C56.4018 70.2656 54.4011 71.3012 52.9327 72.9184C51.4642 74.5355 50.6257 76.6264 50.5699 78.8101V82.0501C50.5853 82.7131 50.8331 83.3496 51.2699 83.8485C51.7067 84.3475 52.3048 84.6772 52.9599 84.7801L58.4799 85.7801M75.3899 68.9101V64.3901" stroke="#00008F" stroke-width="2" stroke-linecap="round" stroke-linejoin="round"/>
<path d="M81 85.77L78.63 86.2C72.718 87.27 66.6619 87.27 60.75 86.2L58.39 85.77" stroke="#00008F" stroke-width="2" stroke-linecap="round" stroke-linejoin="round"/>
<path d="M80.99 85.7799L86.5 84.7799C87.1561 84.6773 87.7555 84.3479 88.194 83.8492C88.6324 83.3504 88.8823 82.7138 88.9 82.0499V78.8099C88.8442 76.6262 88.0057 74.5353 86.5373 72.9182C85.0688 71.301 83.0682 70.2654 80.9 69.9999L75.39 68.9099C75.4221 69.6725 75.2996 70.4338 75.0298 71.1478C74.7601 71.8619 74.3487 72.514 73.8204 73.065C73.2922 73.616 72.6579 74.0544 71.9558 74.3539C71.2537 74.6534 70.4983 74.8078 69.735 74.8078C68.9717 74.8078 68.2163 74.6534 67.5142 74.3539C66.8121 74.0544 66.1778 73.616 65.6495 73.065C65.1213 72.514 64.7099 71.8619 64.4402 71.1478C64.1704 70.4338 64.0479 69.6725 64.08 68.9099M58.43 81.3499V85.7699M81.04 81.3499V85.7699" stroke="#00008F" stroke-width="2" stroke-linecap="round" stroke-linejoin="round"/>
</svg>

<svg width="96" height="96" viewBox="0 0 96 96" fill="none" xmlns="http://www.w3.org/2000/svg"><path d="M41.35 38.7v5.34l-4.06.45m17.63-5.89v5.44l4.42.49M41.55 64a60.498 60.498 0 0017.1-.55l4.46-.79m-1.41-5.05v3.61M48.13 41.78c5.87 0 9-4.89 9-10.17V20.3s-2.26 3.4-5.66 3.4h-6.73c-4.52 0-5.65 2.26-5.65 2.26v5.65c0 5.28 3.18 10.17 9.04 10.17z" stroke="#00008F" stroke-width="2" stroke-linecap="round" stroke-linejoin="round"/><path d="M30.29 39.74a7.58 7.58 0 003.15-5.87V23.7C33.44 15.78 39.09 9 47 9h1.13c6.79 0 9.17 3.29 11.31 6.78 2.26 0 3.39 2.26 3.39 4.52v13.57a7.61 7.61 0 003.27 6m-8.51 8.56A14.48 14.48 0 0139 48.7m18.59-.27c-.192.785-.29 1.591-.29 2.4V52a11.41 11.41 0 004.4 9.26m-4.11-12.83a11.44 11.44 0 011.75-3.9m-1.75 3.9l1.75-3.9M76.71 62a11.61 11.61 0 005.46-10v-1.17a11.59 11.59 0 00-11.31-11.31H68.6c-.843.006-1.681.11-2.5.31m0 0a11.76 11.76 0 00-6.76 4.7m6.76-4.7l-6.76 4.7M41.55 64c.32.24.54.37.54.37-1.44 2.89-4.73 4.39-6.92 5.1" stroke="#00008F" stroke-width="2" stroke-linecap="round" stroke-linejoin="round"/><path d="M41.55 64a6.811 6.811 0 01-2.85-5.26V47.43a3.1 3.1 0 00-1.41-2.94 4 4 0 00-2-.45c-1.87-3.19-4.52-4.52-9-4.52h-1.15a11.33 11.33 0 00-11.31 11.31v7.91c0 3.69-3.39 5.65-3.39 5.65 1.44 2.89 4.73 4.39 6.92 5.1m14.56-5.1v4.52L37.43 70a9.11 9.11 0 018 8.81v3.24a2.83 2.83 0 01-2.39 2.73l-5.52 1m-22.51 0l-5.51-1a2.84 2.84 0 01-2.4-2.73v-3.24a9.11 9.11 0 018-8.81l2.37-.46 3.14-.63" stroke="#00008F" stroke-width="2" stroke-linecap="round" stroke-linejoin="round"/><path d="M15 85.77l2.33.43a50.203 50.203 0 0017.88 0l2.36-.43v-4.42m-2.51-11.81l-2 5c-2.41 5.06-11.16 5.06-13.57 0l-2-5m-.02 0v-.01m3.14-5.14v4.52m-5.65 12.44v4.42m55.36-33.65a7.931 7.931 0 002.8-3.55A5 5 0 0077.65 52v5.65c0 4.6-2.88 9-7.92 9a7.4 7.4 0 01-6.62-4m-44.76-5.04c0 4.52 2.88 9 7.92 9s7.91-4.52 7.91-9v-9a8.65 8.65 0 01-5.65 2.26h-5.65a6 6 0 00-4.53 2.26v4.48z" stroke="#00008F" stroke-width="2" stroke-linecap="round" stroke-linejoin="round"/><path d="M70.32 52.12a7.24 7.24 0 01-4 1h-4.5v4.52a10.44 10.44 0 001.29 5.07m.97 1.68v4.52L58.57 70a9.11 9.11 0 00-8 8.81v3.24a2.83 2.83 0 002.39 2.73l5.52 1m16.91-16.87v-4.52" stroke="#00008F" stroke-width="2" stroke-linecap="round" stroke-linejoin="round"/><path d="M81 85.77l-2.37.43a50.198 50.198 0 01-17.88 0l-2.36-.43" stroke="#00008F" stroke-width="2" stroke-linecap="round" stroke-linejoin="round"/><path d="M80.99 85.78l5.51-1a2.84 2.84 0 002.4-2.73v-3.24a9.11 9.11 0 00-8-8.81l-5.51-1.09a5.658 5.658 0 01-7.876 5.444 5.66 5.66 0 01-3.434-5.444m-5.65 12.44v4.42m22.61-4.42v4.42" stroke="#00008F" stroke-width="2" stroke-linecap="round" stroke-linejoin="round"/></svg>
